X:1
T:Garisson Frolick
M:2/4
L:1/8
S:William Litten
N:Litten was a ships fiddler for the British East India fleet who
N:compiled his ms. during his 1800-1802 voyage to the Far East.
K:G
D|GB AG|FA DF|GD BG|Bd d2|
GB AG|FA Dc|BA GF|G2G:|
|:c|BG dG|cG eG|BG dG|cB AB/c/|
BG dG|cG ec|BA GF|G2 G:||

